X:723
T:Mrs. Morthland
R:Reel
B:The Athole Collection
M:C|
L:1/8
K:A Minor
g|e2dc GAce|fdec fdec|e2 dc GAcd|egde c/c/c c:|
f|edde fddf|ecgc B/c/d BG|ecce fddf|ecdB c2 c>f|
ecce fddf|ecgc B/c/d BG|ecce fdgf|ecdB c2c||

